svg/u1f9c7.svg

<svg viewBox="0 0 128 128" xmlns="http://www.w3.org/2000/svg">
  <path d="M114.97,55.28L64.58,94.37l0.48,18.3c0,0,1.55,0.84,3.9-0.35c1.93-0.99,11.84-9.56,16.88-13.75 c5.03-4.19,21.15-17.25,24.93-20.46c3.78-3.22,9.35-7.02,11.15-9.93c1.42-2.3,2.66-11.63,2.14-13.44c-1.01-3.49-4.45-5.08-4.45-5.08 L114.97,55.28z" fill="#CF7120"/>
  <path d="M54.96,22.34C54.57,23.24,9.2,55.12,9.2,55.12l8.1,10.41c0,0,39.98,26.35,47.82,25.97 s32.27-19.03,32.27-19.03l20.18-20.05c0,0-6.81-5.14-7.58-5.66S68.97,21.7,68.97,21.7l-7.07-1.8L54.96,22.34z" fill="#E07D15"/>
  <path d="M14.47,60.26c0,0,5.53-5.01,8.23-5.01s7.46,3.34,7.46,3.34l-7.2,7.58l6.68,3.21 c0,0,3.98-4.24,6.68-4.63s7.33,3.34,7.33,3.34l-5.91,7.2l5.91,2.83c0,0,4.63-4.63,7.46-4.76s6.04,2.83,6.04,2.83l-5.53,8.1l6.3,2.83 c0,0,4.5-4.63,6.81-5.4c2.31-0.77,9.38,3.86,9.38,3.86l4.24-4.24l-27.64-15.3L22.57,45.74L8.04,55.51L14.47,60.26z" fill="#AC5811"/>
  <path d="M29.22,49.32c0,0,4.92-5.05,8.38-5.21c1.76-0.08,7.05,3.78,7.05,3.78l-7.46,7.97l5.72,3.07 c0,0,5.82-5.72,7.36-5.42c1.53,0.31,18.8,12.77,18.8,12.77l-5.11,5.52l7.15,3.68c0,0,5.31-5.01,8.07-5.01s8.28,4.6,8.28,4.6 l6.64-4.9L37.3,34.81L22.79,45.44L29.22,49.32z" fill="#AC5811"/>
  <path d="M48.94,28.48c0,0-10.83,6.85-9.81,7.25c1.02,0.41,5.31,3.17,5.31,3.17s4.83-4.48,6.88-4.48 c2.04,0,6,3.46,6,3.46l-6.34,6.34l5.41,3.44c0,0,4.81-4.26,7.57-4.16c2.76,0.1,7.56,3.17,7.56,3.17l0.41,4.6l4.5,3.17 c0,0,1.84-2.35,3.78-2.45c1.94-0.1,5.62,3.17,5.62,3.17l-4.6,6.74l4.39,2.35c0,0,5.31-4.7,7.46-4.6c2.15,0.1,7.97,4.7,7.97,4.7 l4.5-3.98L49.86,27.25L48.94,28.48z" fill="#AC5811"/>
  <path d="M53.34,26.23l4.6,3.47c0,0,2.76-3.88,5.93-3.78c3.17,0.1,6.23,2.96,6.23,2.96L64.88,34l6.13,3.37 c0,0,5.11-3.88,7.15-3.68c2.04,0.2,6.34,3.78,6.34,3.78l-3.47,6.44l5.11,2.55c0,0,4.09-3.17,6.03-3.37c1.94-0.2,5.82,2.76,5.82,2.76 l-4.6,6.13l6.13,2.96c0,0,3.58-3.68,6.13-3.78c2.55-0.1,6.95,3.98,6.95,3.98l4.7-3.78L67.44,20.2h-7.97L53.34,26.23z" fill="#AC5811"/>
  <path d="M119.48,49.25c-2.04-1.33-17.3-10.66-25.78-15.56s-21.25-13.9-26.57-15.43 c-5.31-1.53-9.2,0.61-10.93,1.53c-1.74,0.92-14.39,9.73-22.89,15.43c-8.69,5.82-23.19,14.82-25.14,16.86 c-1.94,2.04-3.58,5.01-3.68,7.15S3.99,69.53,4.6,71.5c0.67,2.18,1.74,3.47,4.7,5.62c2.96,2.15,21.87,14.3,26.87,17.68 c5.01,3.37,23.42,15.74,26.16,17.06c2.34,1.13,4.59,1.13,4.59,1.13s-0.78-13.36-0.3-14.56s17.41-13.6,27.2-21.73 c8.93-7.42,23.58-17.63,26.44-21.1C123.12,52.12,121.52,50.58,119.48,49.25z M111.39,55.21c-1.34,1.05-7.86,6.33-15.63,12.08 c-7.77,5.75-25.6,18.79-28.67,20.81c-3.07,2.01-5.56,0.67-7.29-0.38c-1.73-1.05-7.83-4.7-20.38-12.29 c-8.69-5.26-17.78-11.74-20.85-13.85c-3.07-2.11-5.81-3.21-5.91-5.32c-0.1-2.01,4.85-4.49,8.11-6.5 c3.26-2.01,13.52-9.21,18.41-12.08c4.89-2.88,17.16-12.08,20.04-14.38c2.88-2.3,5.62-1.63,6.84-0.97c0.86,0.46,8.31,4.71,10.71,6.15 s18.08,10.86,23.61,14.35c6.15,3.88,10.79,5.51,12.71,7.52C115.01,52.34,112.73,54.15,111.39,55.21z" fill="#F5B03E"/>
  <path d="M19.21,64.27c0,0,21.51-14.94,30.66-21.64c9.11-6.67,24.2-17.11,24.2-17.11l4.45,1.92 c0,0-15.17,10.59-26.67,19.17S23.21,67.46,23.21,67.46L19.21,64.27z" fill="#F5B03E"/>
  <path d="M33.78,72.97c1.07-0.15,23.14-16.24,33.71-24.06s20.99-15.32,20.99-15.32l3.97,2.33 c0,0-21.74,16.52-29.09,21.88s-25.59,19-25.59,19L33.78,72.97z" fill="#F5B03E"/>
  <path d="M48.03,81.55c2.45-0.46,21.31-14.1,30.04-21s23.43-18.27,23.43-18.27l4.33,2.27 c0,0-18.72,14.78-27.76,21.98S48.34,87.68,48.34,87.68L48.03,81.55z" fill="#F5B03E"/>
  <path d="M25.02,44.39l-3.99,2.99c0,0,9.42,7.76,14.08,11.09c4.66,3.33,23.4,15.08,27.61,17.3 c4.21,2.22,13.53,7.43,13.53,7.43l4.88-3.49c0,0-22.95-12.02-28.75-15.85c-6.54-4.32-16.97-10.89-19.49-12.92 C28.24,47.16,25.02,44.39,25.02,44.39z" fill="#F5B03E"/>
  <path d="M40.55,34.08l-4.44,3.1c0,0,4.77,4.99,11.86,9.09S73.59,62.02,78.8,64.79 c5.21,2.77,12.42,7.87,12.42,7.87l3.89-3.98c0,0-21.63-12.09-29.17-16.86S51.41,42.29,48.2,40.4 C44.98,38.52,40.55,34.08,40.55,34.08z" fill="#F5B03E"/>
  <path d="M52.58,24.38l-3.72,3.38c0,0,8.65,6.43,15.19,10.09c6.54,3.66,20.4,11.75,26.17,15.41 s15.41,10.09,15.41,10.09l3.44-3.44c0,0-19.68-12.12-24.06-14.75c-4.99-2.99-17.37-10.46-21.7-13.01 C55.01,27.27,52.58,24.38,52.58,24.38z" fill="#F5B03E"/>
  <path d="M51.36,55.17c0,0-6.93,3.71-7.51,5.66c-0.66,2.18,2.53,3.37,4.81,5.08 c1.84,1.38,12.93,7.97,14.16,8.7s3.94,1.17,5.41-0.22c1.47-1.38,15.38-10.6,16.39-12.63c0.64-1.29-2.79-2.89-4.5-3.71 S51.36,55.17,51.36,55.17z" fill="#AD5910"/>
  <path d="M63.37,44.66c-1.86-0.2-6.18,3.47-9.07,5.53c-2.58,1.83-7.92,5.4-8.42,6.1 c-1.38,1.92,0.84,4.04,0.84,4.04s15.74,8.07,16.26,8c0.51-0.06,4.25-0.51,6.18-2.06c1.93-1.54,10.55-10.94,10.55-10.94 s0.26-1.35-1.16-2.32c-1.13-0.77-5.84-3.59-7.32-4.61C69.75,47.38,65.88,44.93,63.37,44.66z" fill="#FFE265"/>
  <path d="M62.6,66.47c0,0,1.09,0.39,2.32-0.32s8.04-5.6,12.74-9.97c0.6-0.56,1.74-2.06,1.35-2.64 c-0.39-0.58,1.54,0.32,1.54,2.96c0,2.71-1.01,3.68-1.74,4.31c-0.97,0.84-13.19,11.45-14.67,11c-1.05-0.32-2.9-1.74-2.9-1.74 L62.6,66.47z" fill="#FCB602"/>
  <path d="M46.07,56.29c-1.31,0.73-0.61,3.29-0.26,4.18c0.58,1.48,5.69,4.04,7.58,5.3 c4.79,3.19,9.72,5.97,10.43,6.03c0.71,0.06,0.74-2.79,0-4.76c-0.48-1.27-6.1-3.83-9.02-5.59C50.46,58.85,46.91,55.82,46.07,56.29z" fill="#FFEBC9"/>
  <path d="M2.37,63.07c-0.18,1.87,1.29,3.61,3.74,5.81c3.84,3.45,13.98,9.84,24.22,16.64 s25.7,16.34,28.35,18.02s6.69,5.12,8.27,4.73s28.06-22.15,34.06-27.17c6.01-5.02,21.66-17.23,22.84-18.31s1.58-2.95,1.18-3.94 c-0.39-0.98-1.19-1.04-1.19-1.04s-7.96,6.36-12.88,10.2c-4.92,3.84-23.04,18.21-26.58,20.97c-3.54,2.76-15.95,13.59-17.72,13.59 S37.91,86.01,33.38,82.96c-4.53-3.05-14.77-9.65-19.99-13.49c-4.55-3.35-9.06-8.66-9.06-8.66S2.57,61,2.37,63.07z" fill="#E08016"/>
</svg>

<svg viewBox="0 0 128 128" xmlns="http://www.w3.org/2000/svg">
  <defs/>
  <path d="M114.97,55.28 L64.58,94.37 L65.06,112.67 C65.06,112.67 66.61,113.51 68.96,112.32 C70.89,111.33 80.8,102.76 85.84,98.57 C90.87,94.38 106.99,81.32 110.77,78.11 C114.55,74.89 120.12,71.09 121.92,68.18 C123.34,65.88 124.58,56.55 124.06,54.74 C123.05,51.25 119.61,49.66 119.61,49.66 L114.97,55.28 Z" fill="#CF7120"/>
  <path d="M54.96,22.34 C54.57,23.24 9.2,55.12 9.2,55.12 L17.3,65.53 C17.3,65.53 57.28,91.88 65.12,91.5 C72.96,91.12 97.39,72.47 97.39,72.47 L117.57,52.42 C117.57,52.42 110.76,47.28 109.99,46.76 C109.22,46.24 68.97,21.7 68.97,21.7 L61.9,19.9 L54.96,22.34 Z" fill="#E07D15"/>
  <path d="M14.47,60.26 C14.47,60.26 20,55.25 22.7,55.25 C25.4,55.25 30.16,58.59 30.16,58.59 L22.96,66.17 L29.64,69.38 C29.64,69.38 33.62,65.14 36.32,64.75 C39.02,64.36 43.65,68.09 43.65,68.09 L37.74,75.29 L43.65,78.12 C43.65,78.12 48.28,73.49 51.11,73.36 C53.94,73.23 57.15,76.19 57.15,76.19 L51.62,84.29 L57.92,87.12 C57.92,87.12 62.42,82.49 64.73,81.72 C67.04,80.95 74.11,85.58 74.11,85.58 L78.35,81.34 L50.71,66.04 L22.57,45.74 L8.04,55.51 L14.47,60.26 Z" fill="#AC5811"/>
  <path d="M29.22,49.32 C29.22,49.32 34.14,44.27 37.6,44.11 C39.36,44.03 44.65,47.89 44.65,47.89 L37.19,55.86 L42.91,58.93 C42.91,58.93 48.73,53.21 50.27,53.51 C51.8,53.82 69.07,66.28 69.07,66.28 L63.96,71.8 L71.11,75.48 C71.11,75.48 76.42,70.47 79.18,70.47 C81.94,70.47 87.46,75.07 87.46,75.07 L94.1,70.17 L37.3,34.81 L22.79,45.44 L29.22,49.32 Z" fill="#AC5811"/>
  <path d="M48.94,28.48 C48.94,28.48 38.11,35.33 39.13,35.73 C40.15,36.14 44.44,38.9 44.44,38.9 C44.44,38.9 49.27,34.42 51.32,34.42 C53.36,34.42 57.32,37.88 57.32,37.88 L50.98,44.22 L56.39,47.66 C56.39,47.66 61.2,43.4 63.96,43.5 C66.72,43.6 71.52,46.67 71.52,46.67 L71.93,51.27 L76.43,54.44 C76.43,54.44 78.27,52.09 80.21,51.99 C82.15,51.89 85.83,55.16 85.83,55.16 L81.23,61.9 L85.62,64.25 C85.62,64.25 90.93,59.55 93.08,59.65 C95.23,59.75 101.05,64.35 101.05,64.35 L105.55,60.37 L49.86,27.25 L48.94,28.48 Z" fill="#AC5811"/>
  <path d="M53.34,26.23 L57.94,29.7 C57.94,29.7 60.7,25.82 63.87,25.92 C67.04,26.02 70.1,28.88 70.1,28.88 L64.88,34 L71.01,37.37 C71.01,37.37 76.12,33.49 78.16,33.69 C80.2,33.89 84.5,37.47 84.5,37.47 L81.03,43.91 L86.14,46.46 C86.14,46.46 90.23,43.29 92.17,43.09 C94.11,42.89 97.99,45.85 97.99,45.85 L93.39,51.98 L99.52,54.94 C99.52,54.94 103.1,51.26 105.65,51.16 C108.2,51.06 112.6,55.14 112.6,55.14 L117.3,51.36 L67.44,20.2 L59.47,20.2 L53.34,26.23 Z" fill="#AC5811"/>
  <path d="M119.48,49.25 C117.44,47.92 102.18,38.59 93.7,33.69 C85.22,28.79 72.45,19.79 67.13,18.26 C61.82,16.73 57.93,18.87 56.2,19.79 C54.46,20.71 41.81,29.52 33.31,35.22 C24.62,41.04 10.12,50.04 8.17,52.08 C6.23,54.12 4.59,57.09 4.49,59.23 C4.39,61.37 3.99,69.53 4.6,71.5 C5.27,73.68 6.34,74.97 9.3,77.12 C12.26,79.27 31.17,91.42 36.17,94.8 C41.18,98.17 59.59,110.54 62.33,111.86 C64.67,112.99 66.92,112.99 66.92,112.99 C66.92,112.99 66.14,99.63 66.62,98.43 C67.1,97.23 84.03,84.83 93.82,76.7 C102.75,69.28 117.4,59.07 120.26,55.6 C123.12,52.12 121.52,50.58 119.48,49.25 Z M111.39,55.21 C110.05,56.26 103.53,61.54 95.76,67.29 C87.99,73.04 70.16,86.08 67.09,88.1 C64.02,90.11 61.53,88.77 59.8,87.72 C58.07,86.67 51.97,83.02 39.42,75.43 C30.73,70.17 21.64,63.69 18.57,61.58 C15.5,59.47 12.76,58.37 12.66,56.26 C12.56,54.25 17.51,51.77 20.77,49.76 C24.03,47.75 34.29,40.55 39.18,37.68 C44.07,34.8 56.34,25.6 59.22,23.3 C62.1,21 64.84,21.67 66.06,22.33 C66.92,22.79 74.37,27.04 76.77,28.48 C79.17,29.92 94.85,39.34 100.38,42.83 C106.53,46.71 111.17,48.34 113.09,50.35 C115.01,52.34 112.73,54.15 111.39,55.21 Z" fill="#F5B03E"/>
  <path d="M19.21,64.27 C19.21,64.27 40.72,49.33 49.87,42.63 C58.98,35.96 74.07,25.52 74.07,25.52 L78.52,27.44 C78.52,27.44 63.35,38.03 51.85,46.61 C40.35,55.19 23.21,67.46 23.21,67.46 L19.21,64.27 Z" fill="#F5B03E"/>
  <path d="M33.78,72.97 C34.85,72.82 56.92,56.73 67.49,48.91 C78.06,41.09 88.48,33.59 88.48,33.59 L92.45,35.92 C92.45,35.92 70.71,52.44 63.36,57.8 C56.01,63.16 37.77,76.8 37.77,76.8 L33.78,72.97 Z" fill="#F5B03E"/>
  <path d="M48.03,81.55 C50.48,81.09 69.34,67.45 78.07,60.55 C86.8,53.65 101.5,42.28 101.5,42.28 L105.83,44.55 C105.83,44.55 87.11,59.33 78.07,66.53 C69.03,73.73 48.34,87.68 48.34,87.68 L48.03,81.55 Z" fill="#F5B03E"/>
  <path d="M25.02,44.39 L21.03,47.38 C21.03,47.38 30.45,55.14 35.11,58.47 C39.77,61.8 58.51,73.55 62.72,75.77 C66.93,77.99 76.25,83.2 76.25,83.2 L81.13,79.71 C81.13,79.71 58.18,67.69 52.38,63.86 C45.84,59.54 35.41,52.97 32.89,50.94 C28.24,47.16 25.02,44.39 25.02,44.39 Z" fill="#F5B03E"/>
  <path d="M40.55,34.08 L36.11,37.18 C36.11,37.18 40.88,42.17 47.97,46.27 C55.06,50.37 73.59,62.02 78.8,64.79 C84.01,67.56 91.22,72.66 91.22,72.66 L95.11,68.68 C95.11,68.68 73.48,56.59 65.94,51.82 C58.4,47.05 51.41,42.29 48.2,40.4 C44.98,38.52 40.55,34.08 40.55,34.08 Z" fill="#F5B03E"/>
  <path d="M52.58,24.38 L48.86,27.76 C48.86,27.76 57.51,34.19 64.05,37.85 C70.59,41.51 84.45,49.6 90.22,53.26 C95.99,56.92 105.63,63.35 105.63,63.35 L109.07,59.91 C109.07,59.91 89.39,47.79 85.01,45.16 C80.02,42.17 67.64,34.7 63.31,32.15 C55.01,27.27 52.58,24.38 52.58,24.38 Z" fill="#F5B03E"/>
  <path d="M51.36,55.17 C51.36,55.17 44.43,58.88 43.85,60.83 C43.19,63.01 46.38,64.2 48.66,65.91 C50.5,67.29 61.59,73.88 62.82,74.61 C64.05,75.34 66.76,75.78 68.23,74.39 C69.7,73.01 83.61,63.79 84.62,61.76 C85.26,60.47 81.83,58.87 80.12,58.05 C78.41,57.23 51.36,55.17 51.36,55.17 Z" fill="#AD5910"/>
  <path d="M63.37,44.66 C61.51,44.46 57.19,48.13 54.3,50.19 C51.72,52.02 46.38,55.59 45.88,56.29 C44.5,58.21 46.72,60.33 46.72,60.33 C46.72,60.33 62.46,68.4 62.98,68.33 C63.49,68.27 67.23,67.82 69.16,66.27 C71.09,64.73 79.71,55.33 79.71,55.33 C79.71,55.33 79.97,53.98 78.55,53.01 C77.42,52.24 72.71,49.42 71.23,48.4 C69.75,47.38 65.88,44.93 63.37,44.66 Z" fill="#FFE265"/>
  <path d="M62.6,66.47 C62.6,66.47 63.69,66.86 64.92,66.15 C66.15,65.44 72.96,60.55 77.66,56.18 C78.26,55.62 79.4,54.12 79.01,53.54 C78.62,52.96 80.55,53.86 80.55,56.5 C80.55,59.21 79.54,60.18 78.81,60.81 C77.84,61.65 65.62,72.26 64.14,71.81 C63.09,71.49 61.24,70.07 61.24,70.07 L62.6,66.47 Z" fill="#FCB602"/>
  <path d="M46.07,56.29 C44.76,57.02 45.46,59.58 45.81,60.47 C46.39,61.95 51.5,64.51 53.39,65.77 C58.18,68.96 63.11,71.74 63.82,71.8 C64.53,71.86 64.56,69.01 63.82,67.04 C63.34,65.77 57.72,63.21 54.8,61.45 C50.46,58.85 46.91,55.82 46.07,56.29 Z" fill="#FFEBC9"/>
  <path d="M2.37,63.07 C2.19,64.94 3.66,66.68 6.11,68.88 C9.95,72.33 20.09,78.72 30.33,85.52 C40.57,92.32 56.03,101.86 58.68,103.54 C61.33,105.22 65.37,108.66 66.95,108.27 C68.53,107.88 95.01,86.12 101.01,81.1 C107.02,76.08 122.67,63.87 123.85,62.79 C125.03,61.71 125.43,59.84 125.03,58.85 C124.64,57.87 123.84,57.81 123.84,57.81 C123.84,57.81 115.88,64.17 110.96,68.01 C106.04,71.85 87.92,86.22 84.38,88.98 C80.84,91.74 68.43,102.57 66.66,102.57 C64.89,102.57 37.91,86.01 33.38,82.96 C28.85,79.91 18.61,73.31 13.39,69.47 C8.84,66.12 4.33,60.81 4.33,60.81 C4.33,60.81 2.57,61 2.37,63.07 Z" fill="#E08016"/>
</svg>
